src/assets/svg/reglas_cambiantes/formas_sin_cara/circulo_moteado.svg

<svg xmlns="http://www.w3.org/2000/svg" xmlns:xlink="http://www.w3.org/1999/xlink" xmlns:svgjs="http://svgjs.com/svgjs" viewBox="0 0 288 288"><rect width="100%" height="100%" fill="none"/><g class="circulo_moteado_svg__currentLayer"><svg xmlns="http://www.w3.org/2000/svg" data-name="Capa 1" viewBox="0 0 179.21 156.23" fill="#4a90d6"><path d="M94.5 1.48a19.08 19.08 0 00-9.8 0c1.62-.1 3.26-.16 4.9-.16s3.28.06 4.9.16z" class="circulo_moteado_svg__coloref4c23 circulo_moteado_svg__svgShape"/><path d="M142.35 137.93a79 79 0 0014.11-17 19 19 0 00-14.11 17zm-28.85-17.62a19 19 0 00-7.77 36.32 78 78 0 0025.37-10.2 19 19 0 00-17.6-26.12zM84.7 139.3a19 19 0 00-38 0 18.79 18.79 0 001.39 7.13 77.9 77.9 0 0025.37 10.2A19 19 0 0084.7 139.3zm-61.96-18.37a79 79 0 0014.12 17 19 19 0 00-14.12-17zm95.66-19.86a19 19 0 1019-19 19 19 0 00-19 19zm-47.79 0a19 19 0 1019-19 19 19 0 00-19 19zM41.82 82.08a19 19 0 1019 19 19 19 0 00-19-19zm100.47-24.02A19 19 0 00168 75.83a78 78 0 00-11-36.27 19 19 0 00-14.71 18.5zM113.5 77.05a19 19 0 10-19-19 19 19 0 0019 19zM46.72 58.06a19 19 0 1019-19 19 19 0 00-19 19zm-9.81 0a19 19 0 00-14.7-18.5 78.11 78.11 0 00-11 36.27 19 19 0 0025.7-17.77zm100.48-19.24a19 19 0 0014.51-6.74 78.59 78.59 0 00-29.68-23.67 19 19 0 0015.17 30.41zM70.61 19.83A19 19 0 1094.5 1.48c-1.62-.1-3.25-.16-4.9-.16s-3.28.06-4.9.16a19 19 0 00-14.09 18.35zM27.3 32.08A19 19 0 0057 8.41a78.62 78.62 0 00-29.7 23.67z" class="circulo_moteado_svg__color643e64 circulo_moteado_svg__svgShape"/></svg></g></svg>

<svg xmlns="http://www.w3.org/2000/svg" xmlns:xlink="http://www.w3.org/1999/xlink" xmlns:svgjs="http://svgjs.com/svgjs" width="288" height="288" version="1.1"><rect id="backgroundrect" width="100%" height="100%" x="0" y="0" fill="none" stroke="none"/><defs id="SvgjsDefs1002"/><g class="currentLayer" style=""><title>Layer 1</title><g id="SvgjsG1008" class="" fill-opacity="1" fill="#4a90d6"><svg xmlns="http://www.w3.org/2000/svg" data-name="Capa 1" viewBox="0 0 179.21 156.23" width="288" height="288" id="svg_1"><path fill="#4a90d6" d="M94.5,1.48a19.08,19.08,0,0,0-9.8,0c1.62-.1,3.26-.16,4.9-.16S92.88,1.38,94.5,1.48Z" class="coloref4c23 svgShape" id="svg_2"/><path fill="#4a90d6" d="M142.35 137.93a79 79 0 0014.11-17A19 19 0 00142.35 137.93zM113.5 120.31a19 19 0 00-7.77 36.32 78 78 0 0025.37-10.2 19 19 0 00-17.6-26.12zM84.7 139.3a19 19 0 00-38 0 18.79 18.79 0 001.39 7.13 77.9 77.9 0 0025.37 10.2A19 19 0 0084.7 139.3zM22.74 120.93a79 79 0 0014.12 17A19 19 0 0022.74 120.93zM118.4 101.07a19 19 0 1019-19A19 19 0 00118.4 101.07zM70.61 101.07a19 19 0 1019-19A19 19 0 0070.61 101.07zM41.82 82.08a19 19 0 1019 19A19 19 0 0041.82 82.08zM142.29 58.06A19 19 0 00168 75.83a78 78 0 00-11-36.27A19 19 0 00142.29 58.06zM113.5 77.05a19 19 0 10-19-19A19 19 0 00113.5 77.05zM46.72 58.06a19 19 0 1019-19A19 19 0 0046.72 58.06zM36.91 58.06a19 19 0 00-14.7-18.5 78.11 78.11 0 00-11 36.27A19 19 0 0036.91 58.06zM137.39 38.82a19 19 0 0014.51-6.74A78.59 78.59 0 00122.22 8.41a19 19 0 0015.17 30.41zM70.61 19.83A19 19 0 1094.5 1.48c-1.62-.1-3.25-.16-4.9-.16s-3.28.06-4.9.16A19 19 0 0070.61 19.83zM27.3 32.08A19 19 0 0057 8.41 78.62 78.62 0 0027.3 32.08z" class="color643e64 svgShape" id="svg_3"/></svg></g></g></svg>
